plasma/desktoptheme/Arc-Color/icons/onboard.svg

<svg xmlns="http://www.w3.org/2000/svg" width="32" height="32" version="1.1">
 <defs>
  <style id="current-color-scheme" type="text/css">
   .ColorScheme-Background {color:#2f343f; } .ColorScheme-ButtonBackground { color:#444a58; } .ColorScheme-Highlight { color:#5c87cc; } .ColorScheme-Text { color:#d3dae3; } .ColorScheme-NegativeText { color:#f44336; } .ColorScheme-PositiveText { color:#4caf50; } .ColorScheme-NeutralText { color:#ff9800; }
  </style>
 </defs>
 <g id="22-22-onboard" transform="translate(32,-288.53)">
  <rect style="opacity:0.001" width="22" height="22" x="0" y="298.53"/>
  <path style="fill:currentColor" class="ColorScheme-Text" d="m 5.2851562,301.53332 c -1.2662857,0 -2.2851561,1.01887 -2.2851561,2.28516 v 11.42968 c 0,1.26629 1.0188705,2.28516 2.2851561,2.28516 H 16.714844 C 17.981129,317.53332 19,316.51445 19,315.24816 v -11.42968 c 0,-1.26629 -1.018871,-2.28516 -2.285156,-2.28516 z m 2.2167969,2 c 0.7813261,0 1.3913201,0.22266 1.8339845,0.66602 C 9.7788026,304.64259 10,305.25221 10,306.03332 c 0,0.77903 -0.2211974,1.39073 -0.6640624,1.83398 -0.4426644,0.44306 -1.0526583,0.66602 -1.8339845,0.66602 -0.7792221,0 -1.3929214,-0.22296 -1.8378905,-0.66602 -0.4427648,-0.44325 -0.6640625,-1.05495 -0.6640625,-1.83398 0,-0.78111 0.2212977,-1.39073 0.6640625,-1.83398 0.4449691,-0.44336 1.0586684,-0.66602 1.8378905,-0.66602 z m 0,0.90039 c -0.3820461,0 -0.6781606,0.14018 -0.8886719,0.41992 -0.2106114,0.27974 -0.3183594,0.67186 -0.3183593,1.17969 0,0.50574 0.1077479,0.89995 0.3183593,1.17969 0.2105112,0.27974 0.5066257,0.41992 0.8886719,0.41992 0.3841502,0 0.6801138,-0.14018 0.8906251,-0.41992 0.2105112,-0.27974 0.3164062,-0.67395 0.3164062,-1.17969 0,-0.50783 -0.1058951,-0.89995 -0.3164062,-1.17969 -0.2105113,-0.27974 -0.5064748,-0.41992 -0.8906251,-0.41992 z M 13,310.53332 h 1.880859 c 0.674989,0 1.163403,0.10421 1.464844,0.31445 0.304446,0.21024 0.455078,0.54508 0.455078,1.00782 0,0.24322 -0.05485,0.45289 -0.166015,0.625 -0.110161,0.17004 -0.272114,0.2945 -0.482422,0.37695 0.269395,0.0804 0.479738,0.22889 0.626953,0.44531 C 16.926514,313.51928 17,313.78539 17,314.09973 c 0,0.48231 -0.158146,0.84407 -0.474609,1.08007 -0.316464,0.23704 -0.799367,0.35352 -1.445313,0.35352 H 13 Z m 1.253906,0.87695 v 1.0586 h 0.691406 c 0.197292,0 0.347069,-0.0451 0.449219,-0.13477 0.102143,-0.0886 0.154297,-0.22036 0.154297,-0.39453 0,-0.17211 -0.05215,-0.30395 -0.154297,-0.39258 -0.10215,-0.0917 -0.251928,-0.13672 -0.449219,-0.13672 z m -0.002,1.9375 v 1.3086 h 0.734375 c 0.251368,0 0.443174,-0.0548 0.56836,-0.16407 0.128186,-0.10924 0.191406,-0.27554 0.191406,-0.49609 0,-0.21642 -0.06131,-0.37914 -0.1875,-0.48633 -0.126184,-0.10924 -0.318895,-0.16211 -0.572266,-0.16211 z"/>
 </g>
 <g id="onboard">
  <rect style="opacity:0.001" width="32" height="32" x="0" y="0"/>
  <path style="fill:currentColor" class="ColorScheme-Text" d="M 7.4277344 4 C 5.5283059 4 4 5.5282994 4 7.4277344 L 4 24.572266 C 4 26.471701 5.528306 28 7.4277344 28 L 24.572266 28 C 26.471694 28 28 26.471701 28 24.572266 L 28 7.4277344 C 28 5.5282994 26.471694 4 24.572266 4 L 7.4277344 4 z M 11.003906 7 C 12.254028 7 13.229236 7.3570303 13.9375 8.0664062 C 14.646083 8.7756064 15 9.7502249 15 11 C 15 12.246449 14.646083 13.224394 13.9375 13.933594 C 13.229236 14.64249 12.254028 15 11.003906 15 C 9.7571513 15 8.7744506 14.64249 8.0625 13.933594 C 7.3540763 13.224394 7 12.246449 7 11 C 7 9.7502249 7.3540763 8.7756063 8.0625 8.0664062 C 8.7744505 7.3570303 9.7571514 7 11.003906 7 z M 11.003906 8.4394531 C 10.392632 8.4394531 9.9188498 8.6656971 9.5820312 9.1132812 C 9.245053 9.5608653 9.0703125 10.187473 9.0703125 11 C 9.0703125 11.809184 9.2450532 12.439136 9.5820312 12.886719 C 9.9188498 13.334304 10.392632 13.560547 11.003906 13.560547 C 11.618546 13.560547 12.090916 13.334304 12.427734 12.886719 C 12.764552 12.439136 12.935547 11.809184 12.935547 11 C 12.935547 10.187473 12.764552 9.5608654 12.427734 9.1132812 C 12.090916 8.6656971 11.618546 8.4394531 11.003906 8.4394531 z M 18 17 L 21.007812 17 C 22.087795 17 22.869259 17.165568 23.351562 17.501953 C 23.838679 17.838337 24.082031 18.376804 24.082031 19.117188 C 24.082031 19.506339 23.994274 19.841811 23.816406 20.117188 C 23.640146 20.389252 23.379462 20.58683 23.042969 20.71875 C 23.474002 20.847389 23.809379 21.085369 24.044922 21.431641 C 24.280469 21.777929 24.400391 22.204087 24.400391 22.707031 C 24.400391 23.478727 24.148919 24.055994 23.642578 24.433594 C 23.136235 24.812857 22.359685 25 21.326172 25 L 18 25 L 18 17 z M 20.005859 18.402344 L 20.005859 20.097656 L 21.113281 20.097656 C 21.428948 20.097656 21.668591 20.024331 21.832031 19.880859 C 21.995465 19.739099 22.076172 19.528672 22.076172 19.25 C 22.076172 18.974624 21.995472 18.762903 21.832031 18.621094 C 21.668591 18.474374 21.428947 18.402344 21.113281 18.402344 L 20.005859 18.402344 z M 20.001953 21.501953 L 20.001953 23.597656 L 21.177734 23.597656 C 21.579923 23.597656 21.887593 23.508816 22.087891 23.333984 C 22.292988 23.159199 22.394531 22.891942 22.394531 22.539062 C 22.394531 22.192792 22.295649 21.933223 22.09375 21.761719 C 21.891856 21.586932 21.583128 21.501953 21.177734 21.501953 L 20.001953 21.501953 z"/>
 </g>
</svg>

<?xml version="1.0" encoding="UTF-8"?>
<svg width="32" height="32" version="1.1" xmlns="http://www.w3.org/2000/svg">
 <defs>
  <style id="current-color-scheme" type="text/css">.ColorScheme-Background {color:#2f343f; } .ColorScheme-ButtonBackground { color:#444a58; } .ColorScheme-Highlight { color:#5c87cc; } .ColorScheme-Text { color:#d3dae3; } .ColorScheme-NegativeText { color:#f44336; } .ColorScheme-PositiveText { color:#4caf50; } .ColorScheme-NeutralText { color:#ff9800; }</style>
 </defs>
 <g id="22-22-onboard" transform="translate(32,-288.53)">
  <rect y="298.53" width="22" height="22" opacity=".001"/>
  <path class="ColorScheme-Text" d="m5.2852 301.53c-1.2663 0-2.2852 1.0189-2.2852 2.2852v11.43c0 1.2663 1.0189 2.2852 2.2852 2.2852h11.43c1.2663 0 2.2852-1.0189 2.2852-2.2852v-11.43c0-1.2663-1.0189-2.2852-2.2852-2.2852zm2.2168 2c0.78133 0 1.3913 0.22266 1.834 0.66602 0.44286 0.44325 0.66406 1.0529 0.66406 1.834 0 0.77903-0.2212 1.3907-0.66406 1.834-0.44266 0.44306-1.0527 0.66602-1.834 0.66602-0.77922 0-1.3929-0.22296-1.8379-0.66602-0.44276-0.44325-0.66406-1.055-0.66406-1.834 0-0.78111 0.2213-1.3907 0.66406-1.834 0.44497-0.44336 1.0587-0.66602 1.8379-0.66602zm0 0.90039c-0.38205 0-0.67816 0.14018-0.88867 0.41992-0.21061 0.27974-0.31836 0.67186-0.31836 1.1797 0 0.50574 0.10775 0.89995 0.31836 1.1797 0.21051 0.27974 0.50663 0.41992 0.88867 0.41992 0.38415 0 0.68011-0.14018 0.89063-0.41992 0.21051-0.27974 0.31641-0.67395 0.31641-1.1797 0-0.50783-0.1059-0.89995-0.31641-1.1797-0.21051-0.27974-0.50647-0.41992-0.89063-0.41992zm5.498 6.0996h1.8809c0.67499 0 1.1634 0.10421 1.4648 0.31445 0.30445 0.21024 0.45508 0.54508 0.45508 1.0078 0 0.24322-0.05485 0.45289-0.16602 0.625-0.11016 0.17004-0.27211 0.2945-0.48242 0.37695 0.2694 0.0804 0.47974 0.22889 0.62695 0.44531 0.14722 0.21643 0.2207 0.48254 0.2207 0.79688 0 0.48231-0.15815 0.84407-0.47461 1.0801-0.31646 0.23704-0.79937 0.35352-1.4453 0.35352h-2.0801zm1.2539 0.87695v1.0586h0.69141c0.19729 0 0.34707-0.0451 0.44922-0.13477 0.10214-0.0886 0.1543-0.22036 0.1543-0.39453 0-0.17211-0.05215-0.30395-0.1543-0.39258-0.10215-0.0917-0.25193-0.13672-0.44922-0.13672zm-2e-3 1.9375v1.3086h0.73438c0.25137 0 0.44317-0.0548 0.56836-0.16407 0.12819-0.10924 0.19141-0.27554 0.19141-0.49609 0-0.21642-0.06131-0.37914-0.1875-0.48633-0.12618-0.10924-0.3189-0.16211-0.57227-0.16211z" fill="currentColor"/>
 </g>
 <g id="onboard">
  <rect width="32" height="32" opacity=".001"/>
  <path class="ColorScheme-Text" d="m7.4277 4c-1.8994 0-3.4277 1.5283-3.4277 3.4277v17.145c0 1.8994 1.5283 3.4277 3.4277 3.4277h17.145c1.8994 0 3.4277-1.5283 3.4277-3.4277v-17.145c0-1.8994-1.5283-3.4277-3.4277-3.4277h-17.145zm3.5762 3c1.2501 0 2.2253 0.35703 2.9336 1.0664 0.70858 0.7092 1.0625 1.6838 1.0625 2.9336 0 1.2464-0.35392 2.2244-1.0625 2.9336-0.70826 0.7089-1.6835 1.0664-2.9336 1.0664-1.2468 0-2.2295-0.35751-2.9414-1.0664-0.70842-0.7092-1.0625-1.6871-1.0625-2.9336 0-1.2498 0.35408-2.2244 1.0625-2.9336 0.71195-0.70938 1.6947-1.0664 2.9414-1.0664zm0 1.4395c-0.61127 0-1.0851 0.22624-1.4219 0.67383-0.33698 0.44758-0.51172 1.0742-0.51172 1.8867 0 0.80918 0.17474 1.4391 0.51172 1.8867 0.33682 0.44758 0.8106 0.67383 1.4219 0.67383 0.61464 0 1.087-0.22624 1.4238-0.67383 0.33682-0.44758 0.50781-1.0775 0.50781-1.8867 0-0.81253-0.171-1.4391-0.50781-1.8867-0.33682-0.44758-0.80919-0.67383-1.4238-0.67383zm6.9961 8.5605h3.0078c1.08 0 1.8614 0.16557 2.3438 0.50195 0.48712 0.33638 0.73047 0.87485 0.73047 1.6152 0 0.38915-0.087757 0.72462-0.26562 1-0.17626 0.27206-0.43694 0.46964-0.77344 0.60156 0.43103 0.12864 0.76641 0.36662 1.002 0.71289 0.23555 0.34629 0.35547 0.77245 0.35547 1.2754 0 0.7717-0.25147 1.349-0.75781 1.7266-0.50634 0.37926-1.2829 0.56641-2.3164 0.56641h-3.3262v-8zm2.0059 1.4023v1.6953h1.1074c0.31567 0 0.55531-0.073325 0.71875-0.2168 0.16343-0.14176 0.24414-0.35219 0.24414-0.63086 0-0.27538-0.0807-0.4871-0.24414-0.62891-0.16344-0.14672-0.40308-0.21875-0.71875-0.21875h-1.1074zm-0.003906 3.0996v2.0957h1.1758c0.40219 0 0.70986-0.08884 0.91016-0.26367 0.2051-0.17478 0.30664-0.44204 0.30664-0.79492 0-0.34627-0.098882-0.60584-0.30078-0.77734-0.20189-0.17479-0.51062-0.25977-0.91602-0.25977h-1.1758z" fill="currentColor"/>
 </g>
</svg>
